X:1
T: Mr. Shearer of Buchromb's Strathspey
C:William Marshall
R:Strathspey
Q: 128
K:Fm
M:4/4
L:1/16
|:C2F2 F2EF G2F2 F2G2|B3c BG3 E4 E2GE|C2F2 F2GF G2F2 F2G2|e3c B2G2 F4 F4|
C2F2 F2EF G2F2 F2G2|B3c BG3 E4 E2GE|C2F2 F2GF G2F2 F2G2|e3c B2G2 F4 F4|
f3g fc3 a3g f=d3|e3f g2fg e4 e2g2|f3g fc3 a2g2 f2=d2|ec3 BG3 F4 F4|
f3g fc3 a3g f=d3|e3f g2fg e4 e2g2|a2f2 g2=e2 f2c2 a3f|e3c BG3 F4 F4:|
